tools/download-figma-icons/icons/outlined-large/open-hand.svg

<svg width="65" height="64" viewBox="0 0 65 64" fill="none" xmlns="http://www.w3.org/2000/svg"><path fill-rule="evenodd" clip-rule="evenodd" d="M60.89 32.099a1.979 1.979 0 0 1-1.015 1.146L31.878 46.891 3 37.906V23h14.666c8.485 0 10.076 5.14 10.135 5.344a1.502 1.502 0 0 0 1.449 1.111h13.713c.011 0 .02.003.03.003 1.103 0 2.001.898 2.001 2 0 1.103-.898 2-2.001 2H24.159a1.5 1.5 0 1 0 0 3h18.834c.103 0 .204-.01.301-.03a4.934 4.934 0 0 0 1.962-.536c.048-.018.096-.03.143-.053l12.722-6.191a2.006 2.006 0 0 1 2.676.922 1.98 1.98 0 0 1 .093 1.529Zm2.604-2.845a5.008 5.008 0 0 0-6.686-2.303l-8.836 4.299a4.98 4.98 0 0 0-4.663-4.759 1.444 1.444 0 0 0-.316-.036H30.259C29.229 24.347 26.084 20 17.666 20H1.5A1.5 1.5 0 0 0 0 21.5v17.51a1.5 1.5 0 0 0 1.055 1.433l30.5 9.49.021.003c.133.04.272.061.414.062L32 50h.001a1.473 1.473 0 0 0 .526-.105c.043-.017.088-.025.131-.046L61.19 35.943a4.975 4.975 0 0 0 2.537-2.866 4.981 4.981 0 0 0-.233-3.823Z" fill="currentColor"/></svg>

<svg width="65" height="64" viewBox="0 0 65 64" fill="none" xmlns="http://www.w3.org/2000/svg">
<path fill-rule="evenodd" clip-rule="evenodd" d="M60.89 32.099C60.716 32.605 60.356 33.012 59.875 33.245L31.878 46.891L3 37.906V23H17.666C26.151 23 27.742 28.14 27.801 28.344C27.978 28.999 28.572 29.455 29.25 29.455H42.963C42.974 29.455 42.983 29.458 42.993 29.458C44.096 29.458 44.994 30.356 44.994 31.458C44.994 32.561 44.096 33.458 42.993 33.458H24.159C23.33 33.458 22.659 34.13 22.659 34.958C22.659 35.787 23.33 36.458 24.159 36.458H42.993C43.096 36.458 43.197 36.448 43.294 36.428C43.999 36.385 44.66 36.198 45.256 35.892C45.304 35.874 45.352 35.862 45.399 35.839L58.121 29.648C59.114 29.166 60.313 29.579 60.797 30.57C61.032 31.05 61.065 31.593 60.89 32.099ZM63.494 29.254C62.286 26.777 59.283 25.743 56.808 26.951L47.972 31.25C47.866 28.7 45.847 26.653 43.309 26.491C43.206 26.468 43.101 26.455 42.993 26.455H30.259C29.229 24.347 26.084 20 17.666 20H1.5C0.672 20 0 20.672 0 21.5V39.01C0 39.667 0.427 40.247 1.055 40.443L31.555 49.933C31.562 49.935 31.569 49.934 31.576 49.936C31.709 49.976 31.848 49.997 31.99 49.998C31.994 49.998 31.997 50 32 50H32.001C32.14 50 32.279 49.974 32.415 49.934C32.454 49.923 32.49 49.91 32.527 49.895C32.57 49.878 32.615 49.87 32.658 49.849L61.19 35.943C62.39 35.358 63.291 34.339 63.727 33.077C64.161 31.813 64.079 30.456 63.494 29.254Z" fill="black"/>
</svg>
